icons/medium_level.svg

<svg width="48" height="48" viewBox="0 0 48 48" fill="none" xmlns="http://www.w3.org/2000/svg">
<path d="M6.10881 24C6.55678 19.9303 8.36313 16.2691 11.065 13.4793L14.1214 16.5355L15.5356 15.1213L12.5348 12.1207C15.4086 9.74502 19.0332 8.24437 23 8.02729L23 13L25 13L25 8.02729C28.9668 8.24436 32.5915 9.74505 35.4653 12.1208L32.5858 14.9999L33.9999 16.4142L36.9351 13.4794C39.6369 16.2692 41.4432 19.9303 41.8912 24H37.6843V26H42C41.9975 30.3403 40.4578 34.3201 37.8939 37.427L34.4735 34.0067L33.0593 35.4209L36.5365 38.898L36.5239 38.9103L37.9152 40.3471C41.6663 36.7148 44 31.6236 44 25.9892C44 14.949 35.0452 6 24 6C12.9548 6 4 14.949 4 25.9892C4 31.4741 6.21161 36.4446 9.78969 40.0553L11.2103 38.6475C11.204 38.6412 11.1978 38.6349 11.1915 38.6285L14.1968 35.6232L12.7825 34.209L9.86419 37.1275C7.44566 34.0662 6.00246 30.2022 6 26H10.0527V24H6.10881Z" fill="black"/>
<path fill-rule="evenodd" clip-rule="evenodd" d="M22.9961 23.8839L20.6265 37.7042C20.5982 38.0964 20.714 38.4854 20.9522 38.7983L22.8746 41.0096C24.0001 41.5001 24.5001 41.5001 25.4427 41.0096L27.3651 38.7983C27.6033 38.4854 27.7191 38.0964 27.6908 37.7042L25.3096 23.9021C25.1654 21.9052 23.1404 21.8871 22.9961 23.8839ZM25.662 37.7089L24.1538 28.9666L22.6549 37.7085L24.0653 39.3308C24.1424 39.3568 24.1893 39.3686 24.2141 39.3738L25.662 37.7089ZM24.1853 39.3817C24.1854 39.3815 24.1886 39.3807 24.1943 39.3798C24.1879 39.3815 24.1851 39.3819 24.1853 39.3817ZM23.2995 23.9416L23.2985 23.9385C23.2985 23.9384 23.2989 23.9394 23.2995 23.9416Z" fill="black"/>
</svg>

<svg
  xmlns="http://www.w3.org/2000/svg"
  width="24"
  height="24"
  viewBox="0 0 24 24"
  fill="none"
  stroke="currentColor"
  stroke-width="2"
  stroke-linecap="round"
  stroke-linejoin="round"
>
  <path d="M6.109 24a17.93 17.93 0 0 1 4.956-10.52l3.056 3.055 1.415-1.414-3.001-3A17.93 17.93 0 0 1 23 8.027V13h2V8.027a17.92 17.92 0 0 1 10.465 4.094L32.585 15 34 16.414l2.935-2.935A17.93 17.93 0 0 1 41.891 24h-4.207v2H42a17.9 17.9 0 0 1-4.106 11.427l-3.42-3.42-1.415 1.414 3.477 3.477-.012.012 1.391 1.437A19.93 19.93 0 0 0 44 25.99C44 14.95 35.045 6 24 6S4 14.949 4 25.99a19.92 19.92 0 0 0 5.79 14.065l1.42-1.407-.019-.02 3.006-3.005-1.414-1.414-2.919 2.918A17.9 17.9 0 0 1 6 26h4.053v-2z" />
  <path
    fill-rule="evenodd"
    d="m22.996 23.884-2.37 13.82c-.028.392.088.781.326 1.094l1.923 2.212c1.125.49 1.625.49 2.568 0l1.922-2.212c.238-.313.354-.702.326-1.094L25.31 23.902c-.145-1.997-2.17-2.015-2.314-.018m2.666 13.825-1.508-8.742-1.5 8.742 1.411 1.622c.077.026.124.038.15.043zm-1.477 1.673.01-.002zm-.886-15.44v-.003z"
    clip-rule="evenodd"
  />
</svg>
